X:292
%%etbk:tnset id:90,pos:1,rep:3x,ant:
%%etbk:wsite http://www.thesession.org/tunes/display/241
%%etbk:pldat 2015-07-11T16:46,2015-07-08T15:28,2014-04-26T17:26,2013-05-05T14:04
T: Old Gray Goose, The
Z: Piano Box Version by Martin Fleischmann
H: Created 2013-02-19 /  Last Modified 2015-07-08
M: 6/8
L: 1/8
R: jig
K: Emin
F |: "em"!3!G!5!BG !2!F!4!AF | !3!G!1!EE E2!2!F | "D"!1!D!2!F!3!A !5!d!3!A!1!G | !2!F!1!DD DE!3!F |
"em"!1!G2G {c}!2!AG!2!A| !1!B!2!B!1!B !5!gfg | "bm"!4!e!3!d!2!B {d}!2!B!1!A!2!F  |  "em"!3!G!1!EE E3:|
F|: "G"!1!G!2!G!1!G !5!d!3!B!1!G | !1!G!3!B!4!c !5!dB!1!G | "am"!1!A!2!A!1!A !5!e!3!c!1!A | !1!A !2!(3Bcd !5!ecA |
"G"!1!G!2!G!1!G !5!dBG | "em"!1!G!5!gf g2g | "bm"!4!e!3!d!2!B {d}!2!B!1!A!2!F | "em"!3!G!1!EE E3:|
d|: "em"!4!efe {f}!4!e!3!d!2!B | !1!def !4!g2!2!e | "D"!3!f!1!dd !5!a!1!dd | !3!fag fed |
"em"!4!g2g !3!f{g}!3!f!3!f | !1!de!3!f !4!g2g | "bm"!2!e!1!d!2!B {d}!2!B!1!A!2!F | "em"!3!G!1!EE E3:|
c|: "em"!3!B!1!GG !4!A!2!FF | !3!G!1!EE E2!4!c | !3!B!1!GG !5!d!2!A!1!G | "D"!2!F!1!DD D2!4!c |
"em"!3!B!1!GG !2!A!1!G!2!F | !3!G!1!EE !5!gfg | "bm"!4!e!3!d!2!B {d}!2!B!1!A!2!F | "em"!3!G!1!EE E3:|
f|: "em"!3!gbg !2!faf | !3!g!1!ee e2f | !3!gbg !2!fag | "D"!2!f!1!dd d2!2!f |
"em"!3!gbg !2!faf | !1!e!4!gf !4!gfg | "bm"!2!e!1!d!2!B {d}!2!B!1!A!2!F | "em"!3!G!1!EE E3:|
f|: "em"!4!g!1!d!3!c !2!Bc!1!A | !3!G!1!EE E2!3!f | !4!g!1!d!3!B !5!d!2!A!1!G | "D"!2!F!1!DD DE!3!F |
"em"!1!G2G {c}!2!AG!2!A | !1!B!2!B!1!B !5!gfg | "bm"!4!e!3!d!2!B {d}!2!B!1!A!2!F | "em"!3!G!1!EE E3:|


